src/components/00-materials/images-raw/Fishing.svg

<svg width="48" height="48" viewBox="0 0 48 48" fill="none" xmlns="http://www.w3.org/2000/svg">
    <path d="M9.80005 12.9151V22.9151C9.80005 26.1901 11.3 28.7551 14.495 28.7551C17.69 28.7551 19.6901 26.6901 19.6901 23.4151V19.3351L16.565 23.8801H17.9M9.80005 5.81506V9.81506" stroke="currentColor" stroke-linecap="round" stroke-linejoin="round"/>
    <path d="M9.75997 12.7951C10.5415 12.7951 11.175 12.1616 11.175 11.3801C11.175 10.5986 10.5415 9.96509 9.75997 9.96509C8.97849 9.96509 8.34497 10.5986 8.34497 11.3801C8.34497 12.1616 8.97849 12.7951 9.75997 12.7951Z" stroke="currentColor" stroke-miterlimit="10"/>
    <path d="M22 30.5C21.6 30.3 21.8333 27.9167 22 26.75L25 28.25C28 26.5 31.5 25.25 33 19.25C33.5 12.5 26.75 13.8333 23.25 15.25C23.45 14.05 25.1667 12.4167 26 11.75C24.8 10.55 24.3333 8.58333 24.25 7.75C42.25 10.75 39.9167 26 36.5 33.25C37.1 33.85 38.25 33.1667 38.75 32.75C39.75 36.25 38 36.75 37 37C36.4512 37.1372 34.6667 37.1667 33.75 37C27.35 43.2 20.75 41.9167 18.25 40.5C18.4167 40.0833 18.85 39.2 19.25 39C19.65 38.8 18.25 38.4167 17.5 38.25C19 32 22.5 30.75 22 30.5Z" stroke="currentColor"/>
    <circle cx="25.25" cy="34.75" r="0.75" stroke="currentColor"/>
</svg>

<svg width="48" height="48" viewBox="0 0 48 48" fill="none" xmlns="http://www.w3.org/2000/svg"><path d="M9.8 12.915v10c0 3.275 1.5 5.84 4.695 5.84 3.195 0 5.195-2.065 5.195-5.34v-4.08l-3.125 4.545H17.9M9.8 5.815v4" stroke="currentColor" stroke-linecap="round" stroke-linejoin="round"/><path d="M9.76 12.795a1.415 1.415 0 100-2.83 1.415 1.415 0 000 2.83z" stroke="currentColor" stroke-miterlimit="10"/><path d="M22 30.5c-.4-.2-.167-2.583 0-3.75l3 1.5c3-1.75 6.5-3 8-9 .5-6.75-6.25-5.417-9.75-4 .2-1.2 1.917-2.833 2.75-3.5-1.2-1.2-1.667-3.167-1.75-4 18 3 15.667 18.25 12.25 25.5.6.6 1.75-.083 2.25-.5 1 3.5-.75 4-1.75 4.25-.549.137-2.333.167-3.25 0-6.4 6.2-13 4.917-15.5 3.5.167-.417.6-1.3 1-1.5.4-.2-1-.583-1.75-.75 1.5-6.25 5-7.5 4.5-7.75z" stroke="currentColor"/><circle cx="25.25" cy="34.75" r=".75" stroke="currentColor"/></svg>
